!!!OTL: 107b. Graf Friedrich.
!!!ARE: Europa, Mitteleuropa, Deutschland, Schlesien
!!!SCT: E0107
!!!TXL: @@DE
!!!YEM: Copyright 1995, estate of Helmut Schaffrath.
**kern	**text
*ICvox	*
*M4/4	*
*met(c)	*
*k[b-e-]	*
*B-:	*
!LO:TX:a:t=Mäßig.	!
!LO:TX:a:t=Aus Schlefien. Hoffmann Rr. 19. Erk, Liederh. Nr. 15.	!
{4f	Graf
=1	=1
4b-/	Fried-
4f	-rich
8gL	wollt
8aJ	.
8b-L	aus-
8gJ	.
=2	=2
(4.f	-rei-
8e-)	.
4d}	-ten
{4f	mit
=3	=3
4b-/	ſei-
4f	-nen
8gL	Hoch-
8aJ	.
8b-L	-ʒeit-
8gJ	.
=4	=4
(4.f	-leu-
8e-)	.
4d}	-ten,
{4b-	ʒu
=5	=5
4cc	ho-
4a	-len
4f	.
4f	ne
=6	=6
4.ee-	lie-
8cc	-be
4dd}	Braut,
{4b-	die
=7	=7
4cc	ihm
4a	ʒur
4f	Eh'
4b-	ward
=8	=8
8ddL	an-
8ccJ	.
8ccL	-ge-
8aJ	.
4b-}	-traut
{4b-	ʒu
=9	=9
4cc	ho-
4a	-len
4f	.
4f	ne
=10	=10
4.ee-	lie-
8cc	-be
4dd}	Braut,
{4b-	die
=11	=11
4cc	ihm
4a	ʒur
4f	Eh'
4b-	ward
=12	=12
8ddL	an-
8ccJ	.
8ccL	-ge-
8aJ	.
4b-}	-traut
==	==
!!!AGN: erzaehlendes Volks - Lied, Sage, Liebe, Leid, Tod, Ballade ?
!!!ONB: ESAC (Essen Associative Code) Database: ERK1
!!!AMT: simple quadruple
!!!AIN: vox
!!!EED: Helmut Schaffrath
!!!EEV: 1.0
!!!GTL: Liebesgeschichten mit tragischem Schluss
!!!URL-scan: https://rosdok.uni-rostock.de/mcrviewer/recordIdentifier/rosdok_ppn745146120/iview2/phys_0444.iview2?x=-422.27491384562836&y=518.3732437670697&scale=0.554360769283424&rotation=0&layout=singlePageLayout
!!!ENC: Anna Maria Matuszewska
!!!EEV: 2024/02/12
*-	*-
